wp-content/themes/lnob/assets/images/svgs/logos/forumciv-logo-inv.svg

<svg fill="none" height="32" viewBox="0 0 227 32" width="227" xmlns="http://www.w3.org/2000/svg"><g fill="#fff"><path d="m0 .568359h20.1046v6.828171h-11.94869v5.87947h10.24159v6.8275h-10.24159v11.2856h-8.15591z"/><path d="m41.8215 22.4993c1.0737-1.6278 1.6118-3.8484 1.6118-6.6623 0-2.7817-.5294-4.9473-1.5884-6.49619-1.0594-1.54791-2.521-2.32314-4.3859-2.32314-1.8655 0-3.3272.77523-4.3861 2.32314-1.0594 1.54889-1.5885 3.71449-1.5885 6.49619 0 2.8139.5375 5.0345 1.6124 6.6623 1.0744 1.6284 2.5283 2.4417 4.3622 2.4417 1.833 0 3.2872-.8133 4.3625-2.4417zm-11.8783 7.5385c-2.1656-1.2798-3.8404-3.136-5.0259-5.571-1.1853-2.4337-1.778-5.311-1.778-8.6298 0-3.3195.5927-6.17153 1.778-8.5589 1.1855-2.38577 2.8603-4.19603 5.0259-5.42886 2.1652-1.232825 4.6705-1.84924 7.5158-1.84924 2.845 0 5.3496.624403 7.5155 1.87257 2.1647 1.24977 3.8407 3.05843 5.0259 5.4295 1.1856 2.37043 1.7784 5.21543 1.7784 8.53493 0 3.3188-.5928 6.1961-1.7784 8.6298-1.1852 2.435-2.8612 4.2912-5.0259 5.571-2.1659 1.2808-4.6705 1.9205-7.5155 1.9205-2.8453 0-5.3506-.6397-7.5158-1.9205z"/><path d="m64.4855 14.6037h2.9399c1.6122 0 2.8367-.3477 3.6752-1.0433.8369-.6947 1.2561-1.7064 1.2561-3.0345 0-1.2961-.4029-2.20491-1.2091-2.72641-.806-.52183-2.0471-.78227-3.7222-.78227h-2.9399zm8.44 16.7854-5.3103-10.3372h-3.1297v10.3372h-8.1555v-30.820741h11.6645c3.6985 0 6.6774.766601 8.9382 2.300131 2.2596 1.53321 3.3901 4.08546 3.3901 7.65741 0 2.1177-.4432 3.9203-1.3277 5.4055-.8852 1.4866-2.1026 2.6552-3.6512 3.509l6.686 11.9487z"/><path d="m87.2687 28.1648c-2.1026-2.5286-3.153-6.4163-3.153-11.6643v-15.932141h8.1556v16.880341c0 2.719.3627 4.6466 1.0903 5.7851.727 1.1379 1.9122 1.7067 3.5563 1.7067 1.6435 0 2.845-.5768 3.6031-1.7307.759-1.1539 1.139-3.0737 1.139-5.7611v-16.880341h7.871v15.932141c0 5.2794-1.028 9.175-3.082 11.6883-2.056 2.5126-5.232 3.7691-9.5311 3.7691-4.3312 0-7.5475-1.2635-9.6492-3.7931z"/><path d="m114.272.568359h8.725l4.647 12.612741c.221.6327.522 1.6121.901 2.9398l.711 2.4657h.189l.712-2.4657c.379-1.3277.679-2.3071.901-2.9398l4.457-12.612741h8.725v30.820741h-7.398v-9.1037c0-1.1693.095-2.6798.285-4.5284.19-1.8495.395-3.5636.617-5.1448l.142-1.328h-.19l-2.561 7.3973-3.793 10.1943h-4.362l-3.793-10.1943-2.466-7.3973h-.19l.142 1.328c.221 1.5812.427 3.2953.617 5.1448.19 1.8486.284 3.3591.284 4.5284v9.1037h-7.302z"/></g><path d="m172.534 6.76119c-1.671-.83595-4.002-1.23155-6.421-1.23155-5.585 0-9.895 4.3101-9.895 10.46786 0 6.8163 5.057 10.4663 10.247 10.4663 2.419 0 4.486-.3953 6.289-1.3188l.748 1.9786c-2.243 1.0562-4.618 1.4073-6.993 1.4073-6.245 0-12.71-4.2653-12.71-12.5334 0-8.26839 6.333-12.53504 12.622-12.53504 2.287 0 4.662.44034 6.861 1.36384zm1.232-3.16612c-2.199-.96792-4.794-1.45172-7.477-1.45172-7.828 0-14.074 5.36559-14.074 13.85415 0 8.4876 6.378 13.8529 14.162 13.8529 2.507 0 5.322-.4394 7.609-1.4955l.703 1.8476c-2.463 1.2757-5.365 1.715-8.356 1.715-8.84 0-16.536-6.0686-16.536-15.92 0-9.58782 7.52-15.9213281 16.184-15.9213281 3.079 0 5.849.4838011 8.488 1.6715781z" fill="#ffcb27"/><path d="m184.802 31.3891v-30.785584h2.375v30.785584zm-1.583 0h-2.375v-30.785584h2.375z" fill="#ffcb27"/><path d="m196.236.603516h2.594l8.401 21.813584 8.4-21.813584h2.594l-10.994 27.135384zm8.444 30.785584-12.447-30.785584h2.375l11.611 28.542684h2.023l11.611-28.542684h2.375l-12.447 30.785584z" fill="#ffcb27"/><path d="m222.546 26.3845c.756 0 1.08.4324 1.08 1.2424 0 .8641-.324 1.2415-1.08 1.2415-.757 0-1.08-.4321-1.08-1.2415 0-.81.323-1.2424 1.08-1.2424zm0-1.1874c-1.512 0-2.376.7557-2.376 2.4298 0 1.6735.864 2.4302 2.376 2.4302s2.376-.7567 2.376-2.4302c0-1.6741-.864-2.4298-2.376-2.4298zm-4.321 2.4298c0-2.9705 1.404-4.3749 4.321-4.3749 2.916 0 4.32 1.4044 4.32 4.3749 0 2.9696-1.404 4.374-4.32 4.374-2.917 0-4.321-1.4044-4.321-4.374z" fill="#ffcb27"/></svg>

<svg width="227" height="32" viewBox="0 0 227 32" fill="none" xmlns="http://www.w3.org/2000/svg">
<path d="M0 0.568359H20.1046V7.39653H8.15591V13.276H18.3975V20.1035H8.15591V31.3891H0V0.568359Z" fill="white"/>
<path d="M41.8215 22.4993C42.8952 20.8715 43.4333 18.6509 43.4333 15.837C43.4333 13.0553 42.9039 10.8897 41.8449 9.34081C40.7855 7.7929 39.3239 7.01767 37.459 7.01767C35.5935 7.01767 34.1318 7.7929 33.0729 9.34081C32.0135 10.8897 31.4844 13.0553 31.4844 15.837C31.4844 18.6509 32.0219 20.8715 33.0968 22.4993C34.1712 24.1277 35.6251 24.941 37.459 24.941C39.292 24.941 40.7462 24.1277 41.8215 22.4993ZM29.9432 30.0378C27.7776 28.758 26.1028 26.9018 24.9173 24.4668C23.732 22.0331 23.1393 19.1558 23.1393 15.837C23.1393 12.5175 23.732 9.66547 24.9173 7.2781C26.1028 4.89233 27.7776 3.08207 29.9432 1.84924C32.1084 0.616415 34.6137 0 37.459 0C40.304 0 42.8086 0.624403 44.9745 1.87257C47.1392 3.12234 48.8152 4.931 50.0004 7.30207C51.186 9.6725 51.7788 12.5175 51.7788 15.837C51.7788 19.1558 51.186 22.0331 50.0004 24.4668C48.8152 26.9018 47.1392 28.758 44.9745 30.0378C42.8086 31.3186 40.304 31.9583 37.459 31.9583C34.6137 31.9583 32.1084 31.3186 29.9432 30.0378Z" fill="white"/>
<path d="M64.4855 14.6037H67.4254C69.0376 14.6037 70.2621 14.256 71.1006 13.5604C71.9375 12.8657 72.3567 11.854 72.3567 10.5259C72.3567 9.2298 71.9538 8.32099 71.1476 7.79949C70.3416 7.27766 69.1005 7.01722 67.4254 7.01722H64.4855V14.6037ZM72.9255 31.3891L67.6152 21.0519H64.4855V31.3891H56.33V0.568359H67.9945C71.693 0.568359 74.6719 1.33496 76.9327 2.86849C79.1923 4.4017 80.3228 6.95395 80.3228 10.5259C80.3228 12.6436 79.8796 14.4462 78.9951 15.9314C78.1099 17.418 76.8925 18.5866 75.3439 19.4404L82.0299 31.3891H72.9255Z" fill="white"/>
<path d="M87.2687 28.1648C85.1661 25.6362 84.1157 21.7485 84.1157 16.5005V0.568359H92.2713V17.4487C92.2713 20.1677 92.634 22.0953 93.3616 23.2338C94.0886 24.3717 95.2738 24.9405 96.9179 24.9405C98.5614 24.9405 99.7629 24.3637 100.521 23.2098C101.28 22.0559 101.66 20.1361 101.66 17.4487V0.568359H109.531V16.5005C109.531 21.7799 108.503 25.6755 106.449 28.1888C104.393 30.7014 101.217 31.9579 96.9179 31.9579C92.5867 31.9579 89.3704 30.6944 87.2687 28.1648Z" fill="white"/>
<path d="M114.272 0.568359H122.997L127.644 13.1811C127.865 13.8138 128.166 14.7932 128.545 16.1209L129.256 18.5866H129.445L130.157 16.1209C130.536 14.7932 130.836 13.8138 131.058 13.1811L135.515 0.568359H144.24V31.3891H136.842V22.2854C136.842 21.1161 136.937 19.6056 137.127 17.757C137.317 15.9075 137.522 14.1934 137.744 12.6122L137.886 11.2842H137.696L135.135 18.6815L131.342 28.8758H126.98L123.187 18.6815L120.721 11.2842H120.531L120.673 12.6122C120.894 14.1934 121.1 15.9075 121.29 17.757C121.48 19.6056 121.574 21.1161 121.574 22.2854V31.3891H114.272V0.568359Z" fill="white"/>
<path d="M172.534 6.76119C170.863 5.92524 168.532 5.52964 166.113 5.52964C160.528 5.52964 156.218 9.83974 156.218 15.9975C156.218 22.8138 161.275 26.4638 166.465 26.4638C168.884 26.4638 170.951 26.0685 172.754 25.145L173.502 27.1236C171.259 28.1798 168.884 28.5309 166.509 28.5309C160.264 28.5309 153.799 24.2656 153.799 15.9975C153.799 7.72911 160.132 3.46246 166.421 3.46246C168.708 3.46246 171.083 3.9028 173.282 4.8263L172.534 6.76119ZM173.766 3.59507C171.567 2.62715 168.972 2.14335 166.289 2.14335C158.461 2.14335 152.215 7.50894 152.215 15.9975C152.215 24.4851 158.593 29.8504 166.377 29.8504C168.884 29.8504 171.699 29.411 173.986 28.3549L174.689 30.2025C172.226 31.4782 169.324 31.9175 166.333 31.9175C157.493 31.9175 149.797 25.8489 149.797 15.9975C149.797 6.40968 157.317 0.0761719 165.981 0.0761719C169.06 0.0761719 171.83 0.559973 174.469 1.74775L173.766 3.59507Z" fill="#FFCB27"/>
<path d="M184.802 31.3891V0.603516H187.177V31.3891H184.802ZM183.219 31.3891H180.844V0.603516H183.219V31.3891Z" fill="#FFCB27"/>
<path d="M196.236 0.603516H198.83L207.231 22.4171L215.631 0.603516H218.225L207.231 27.7389L196.236 0.603516ZM204.68 31.3891L192.233 0.603516H194.608L206.219 29.1462H208.242L219.853 0.603516H222.228L209.781 31.3891H204.68Z" fill="#FFCB27"/>
<path d="M222.546 26.3845C223.302 26.3845 223.626 26.8169 223.626 27.6269C223.626 28.491 223.302 28.8684 222.546 28.8684C221.789 28.8684 221.466 28.4363 221.466 27.6269C221.466 26.8169 221.789 26.3845 222.546 26.3845ZM222.546 25.1971C221.034 25.1971 220.17 25.9528 220.17 27.6269C220.17 29.3004 221.034 30.0571 222.546 30.0571C224.058 30.0571 224.922 29.3004 224.922 27.6269C224.922 25.9528 224.058 25.1971 222.546 25.1971ZM218.225 27.6269C218.225 24.6564 219.629 23.252 222.546 23.252C225.462 23.252 226.866 24.6564 226.866 27.6269C226.866 30.5965 225.462 32.0009 222.546 32.0009C219.629 32.0009 218.225 30.5965 218.225 27.6269Z" fill="#FFCB27"/>
</svg>
